svg/system/dots_fill.svg

<?xml version="1.0" encoding="UTF-8"?>
<svg width="24px" height="24px" viewBox="0 0 24 24" version="1.1" xmlns="http://www.w3.org/2000/svg" xmlns:xlink="http://www.w3.org/1999/xlink">
    <title>dots_fill</title>
    <g id="Icon" stroke="none" stroke-width="1" fill="none" fill-rule="evenodd">
        <g id="System" transform="translate(-672.000000, -528.000000)" fill-rule="nonzero">
            <g id="dots_fill" transform="translate(672.000000, 528.000000)">
                <path d="M24,0 L24,24 L0,24 L0,0 L24,0 Z M12.5935,23.2578 L12.5819,23.2595 L12.5109,23.295 L12.4919,23.2987 L12.4767,23.295 L12.4057,23.2595 C12.3958,23.2564 12.387,23.259 12.3821,23.2649 L12.378,23.2758 L12.3609,23.7031 L12.3659,23.7235 L12.3769,23.7357 L12.4805,23.8097 L12.4953,23.8136 L12.5071,23.8097 L12.6107,23.7357 L12.6233,23.7197 L12.6267,23.7031 L12.6096,23.2758 C12.6076,23.2657 12.601,23.2593 12.5935,23.2578 Z M12.8584,23.1453 L12.8445,23.1473 L12.6598,23.2397 L12.6499,23.2499 L12.6472,23.2611 L12.6651,23.6906 L12.6699,23.7034 L12.6784,23.7105 L12.8793,23.8032 C12.8914,23.8069 12.9022,23.803 12.9078,23.7952 L12.9118,23.7812 L12.8777,23.1665 C12.8753,23.1546 12.8674,23.147 12.8584,23.1453 Z M12.143,23.1473 C12.1332,23.1424 12.1222,23.1453 12.1156,23.1526 L12.1099,23.1665 L12.0758,23.7812 C12.0751,23.7927 12.0828,23.8019 12.0926,23.8046 L12.1083,23.8032 L12.3092,23.7105 L12.3186,23.7024 L12.3225,23.6906 L12.3404,23.2611 L12.3372,23.2485 L12.3278,23.2397 L12.143,23.1473 Z" id="MingCute"></path>
                <path d="M9,4 C10.1046,4 11,4.89543 11,6 C11,7.10457 10.1046,8 9,8 C7.89543,8 7,7.10457 7,6 C7,4.89543 7.89543,4 9,4 Z M11,12 C11,10.8954 10.1046,10 9,10 C7.89543,10 7,10.8954 7,12 C7,13.1046 7.89543,14 9,14 C10.1046,14 11,13.1046 11,12 Z M11,18 C11,16.8954 10.1046,16 9,16 C7.89543,16 7,16.8954 7,18 C7,19.1046 7.89543,20 9,20 C10.1046,20 11,19.1046 11,18 Z M17,12 C17,10.8954 16.1046,10 15,10 C13.8954,10 13,10.8954 13,12 C13,13.1046 13.8954,14 15,14 C16.1046,14 17,13.1046 17,12 Z M15,16 C16.1046,16 17,16.8954 17,18 C17,19.1046 16.1046,20 15,20 C13.8954,20 13,19.1046 13,18 C13,16.8954 13.8954,16 15,16 Z M17,6 C17,4.89543 16.1046,4 15,4 C13.8954,4 13,4.89543 13,6 C13,7.10457 13.8954,8 15,8 C16.1046,8 17,7.10457 17,6 Z" id="形状" fill="#09244B"></path>
            </g>
        </g>
    </g>
</svg>

<svg xmlns="http://www.w3.org/2000/svg" width="24" height="24"><g fill="none" fill-rule="nonzero"><path d="M24 0v24H0V0h24ZM12.594 23.258l-.012.002-.071.035-.02.004-.014-.004-.071-.036c-.01-.003-.019 0-.024.006l-.004.01-.017.428.005.02.01.013.104.074.015.004.012-.004.104-.074.012-.016.004-.017-.017-.427c-.002-.01-.009-.017-.016-.018Zm.264-.113-.014.002-.184.093-.01.01-.003.011.018.43.005.012.008.008.201.092c.012.004.023 0 .029-.008l.004-.014-.034-.614c-.003-.012-.01-.02-.02-.022Zm-.715.002a.023.023 0 0 0-.027.006l-.006.014-.034.614c0 .012.007.02.017.024l.015-.002.201-.093.01-.008.003-.011.018-.43-.003-.012-.01-.01-.184-.092Z"/><path fill="#09244B" d="M9 4a2 2 0 1 1 0 4 2 2 0 0 1 0-4Zm2 8a2 2 0 1 0-4 0 2 2 0 0 0 4 0Zm0 6a2 2 0 1 0-4 0 2 2 0 0 0 4 0Zm6-6a2 2 0 1 0-4 0 2 2 0 0 0 4 0Zm-2 4a2 2 0 1 1 0 4 2 2 0 0 1 0-4Zm2-10a2 2 0 1 0-4 0 2 2 0 0 0 4 0Z"/></g></svg>
